svgs/egg_inc.svg

<svg width="192" height="192" viewBox="0 0 192 192" fill="none" xmlns="http://www.w3.org/2000/svg">
<path d="M96 23C103.789 23 111.307 26.4775 114.23 28.2218C122.242 33.1388 129.207 40.8119 134.716 48.7457C140.192 56.6324 143.926 64.3353 145.64 68.8312C151.748 85.6371 151.413 104.785 150.478 112.117C147.749 128.392 144.291 135.538 138.007 145.686C123.206 167.285 103.669 169 96 169C88.3308 169 68.7942 167.285 53.9931 145.686C47.7089 135.538 44.2505 128.392 41.5216 112.117C40.5869 104.785 40.2518 85.6373 46.3602 68.8313C48.0738 64.3355 51.8075 56.6325 57.2839 48.7457C62.793 40.8119 69.7576 33.1388 77.77 28.2218C80.6933 26.4775 88.2111 23 96 23Z" stroke="black" stroke-width="14"/>
</svg>

<svg xmlns="http://www.w3.org/2000/svg" width="192" height="192" fill="none" viewBox="0 0 192 192"><path stroke="#000" stroke-width="14" d="M96 23c7.789 0 15.307 3.477 18.23 5.222 8.012 4.917 14.977 12.59 20.486 20.524 5.476 7.886 9.21 15.59 10.924 20.085 6.108 16.806 5.773 35.954 4.838 43.286-2.729 16.275-6.187 23.421-12.471 33.569C123.206 167.285 103.669 169 96 169c-7.67 0-27.206-1.715-42.007-23.314-6.284-10.148-9.742-17.294-12.471-33.569-.935-7.332-1.27-26.48 4.838-43.286 1.714-4.496 5.447-12.199 10.924-20.085 5.509-7.934 12.474-15.607 20.486-20.524C80.693 26.477 88.211 23 96 23Z"/></svg>
